!! 00000] TT[WS
!!!OTL: Zizhao de duixiang xinzhong ai
!!!ARE: Asia, China,ÿShanxi Ningwu
!! Ethnic Group: Han
!! WI, 151
!!!SCT: J0182
!!!YEM: Copyright 1995, estate of Helmut Schaffrath.
**kern
*ICvox
*Ivox
*M2/4
*k[]
*C:
{8.dd
16ee
8dd
8cc
=1
8dd
4a
8a
=2
8cc
16b
16a
16g
16a
16f
16g
=3
2a}
=4
{8.a
16dd
8cc
8a
=5
8cc
8e
8g
8a
=6
16e
8e
16d
4c
=7
16g
8g
16a
16e
16g
16e
16c
=8
2d}
==
!!!AGN: Xiaodiao. Qingge
!!!ONB: ESAC (Essen Associative Code) Database: CHINA
!!!AMT: simple duple
!!!AIN: vox
!!!EED: Helmut Schaffrath
!!!EEV: 1.0
*-
